www/assets/icons/playlist_play.svg

<svg width="24" height="24" viewBox="0 0 24 24" xmlns="http://www.w3.org/2000/svg" fill='currentColor'><path d="M13.5 8.5H2.5V10.5H13.5V8.5Z"/><path d="M13.5 4.5H2.5V6.5H13.5V4.5Z"/><path d="M9.5 12.5H2.5V14.5H9.5V12.5Z"/><path d="M15.5 11.5V19.5L21.5 15.5L15.5 11.5Z"/></svg>

<svg xmlns="http://www.w3.org/2000/svg" width="24" height="24" viewBox="0 0 24 24" fill='currentColor'><path d="M13.5 8.5h-11v2h11zm0-4h-11v2h11zm-4 8h-7v2h7zm6-1v8l6-4z"/></svg>
